dist/img/behance-md.svg

<svg width="18" height="12" viewBox="0 0 18 12" fill="none" xmlns="http://www.w3.org/2000/svg">
<path d="M16.0404 2.2367H11.6433V1.14416H16.0404V2.2367ZM9.31927 6.71458C9.6025 7.15451 9.74466 7.6892 9.74466 8.31436C9.74466 8.96321 9.58473 9.54368 9.2595 10.0568C9.05273 10.3966 8.79534 10.6836 8.4868 10.9141C8.13895 11.1812 7.72757 11.3653 7.25479 11.4638C6.77987 11.5624 6.26671 11.6103 5.7137 11.6103H0.795898V0.692383H6.06855C7.39749 0.713383 8.3398 1.09839 8.89604 1.85547C9.22988 2.31909 9.39519 2.87532 9.39519 3.52202C9.39519 4.19026 9.22719 4.72387 8.89065 5.12934C8.70327 5.35711 8.42649 5.56442 8.05926 5.75073C8.6155 5.95481 9.03711 6.27412 9.31927 6.71458ZM3.31376 4.99688H5.62432C6.09925 4.99688 6.48317 4.90588 6.77825 4.72603C7.07387 4.54564 7.22141 4.22526 7.22141 3.76541C7.22141 3.25817 7.02648 2.92109 6.63502 2.75901C6.29848 2.64594 5.86824 2.58778 5.34647 2.58778H3.31376V4.99688ZM7.44379 8.15821C7.44379 7.5912 7.21172 7.19974 6.74917 6.98866C6.49071 6.86966 6.12563 6.80774 5.6577 6.80343H3.31376V9.71276H5.62055C6.09494 9.71276 6.46163 9.65137 6.72656 9.52106C7.20418 9.28414 7.44379 8.83129 7.44379 8.15821ZM17.6714 6.38235C17.7253 6.73989 17.7495 7.25789 17.7387 7.93528H12.045C12.0768 8.72144 12.3476 9.27068 12.8629 9.58514C13.1725 9.78222 13.5489 9.8786 13.9899 9.8786C14.4546 9.8786 14.8332 9.76122 15.1245 9.51999C15.2833 9.39183 15.4233 9.21091 15.5439 8.98368H17.6316C17.5761 9.4473 17.3257 9.91738 16.8734 10.3971C16.1739 11.1564 15.1929 11.5392 13.9328 11.5392C12.8909 11.5392 11.9739 11.2162 11.1775 10.5759C10.3833 9.93407 9.98481 8.88998 9.98481 7.44366C9.98481 6.08727 10.3434 5.04803 11.0617 4.32595C11.7822 3.60171 12.7121 3.24148 13.8591 3.24148C14.5386 3.24148 15.1514 3.36263 15.6985 3.60656C16.2434 3.85156 16.6936 4.23602 17.0479 4.7648C17.3683 5.23057 17.575 5.76904 17.6714 6.38235ZM15.6161 6.58643C15.5789 6.04311 15.3969 5.63173 15.0695 5.35065C14.7448 5.06795 14.3405 4.92688 13.858 4.92688C13.3314 4.92688 12.927 5.07765 12.6373 5.37488C12.3471 5.67265 12.1667 6.07542 12.0924 6.58643H15.6161Z" fill="#707070"/>
</svg>

<svg width="18" height="12" fill="none" xmlns="http://www.w3.org/2000/svg"><path d="M16.04 2.237h-4.397V1.144h4.397v1.093zM9.32 6.715c.282.44.425.974.425 1.6 0 .648-.16 1.229-.486 1.742a3.012 3.012 0 01-2.004 1.407 7.58 7.58 0 01-1.541.146H.796V.692h5.273c1.328.021 2.27.406 2.827 1.163.334.464.5 1.02.5 1.667 0 .668-.169 1.202-.505 1.607-.188.228-.465.435-.832.622.557.204.978.523 1.26.964zM3.313 4.997h2.31c.475 0 .86-.091 1.154-.271.296-.18.443-.5.443-.96 0-.508-.195-.845-.586-1.007-.337-.113-.767-.171-1.289-.171H3.314v2.409zm4.13 3.161c0-.567-.232-.958-.695-1.17-.258-.118-.623-.18-1.091-.185H3.314v2.91H5.62c.474 0 .84-.062 1.106-.192.477-.237.717-.69.717-1.363zM17.67 6.382c.054.358.079.876.068 1.553h-5.694c.032.786.303 1.336.818 1.65.31.197.686.294 1.127.294.465 0 .843-.118 1.134-.359.16-.128.3-.31.42-.536h2.088c-.056.463-.306.933-.759 1.413-.7.76-1.68 1.142-2.94 1.142a4.272 4.272 0 01-2.755-.963c-.795-.642-1.193-1.686-1.193-3.132 0-1.357.358-2.396 1.077-3.118.72-.724 1.65-1.085 2.797-1.085.68 0 1.292.122 1.84.366.544.245.995.629 1.349 1.158a3.87 3.87 0 01.623 1.617zm-2.055.204c-.037-.543-.22-.954-.546-1.235-.325-.283-.73-.424-1.212-.424-.527 0-.931.15-1.22.448-.29.298-.471.7-.546 1.211h3.524z" fill="#707070"/></svg>
